assets/images/icons/ico-9.svg

<svg width="49" height="49" viewBox="0 0 49 49" fill="none" xmlns="http://www.w3.org/2000/svg">
<path d="M31.6152 2.02185C31.9218 1.80054 32.3208 1.64681 32.6997 1.77536C33.1456 1.90126 33.4053 2.31208 33.6825 2.64737C29.1596 5.93929 24.5846 9.16362 20.0497 12.4423C19.9479 12.5032 19.8368 12.5443 19.7176 12.5655C19.4954 12.1627 19.0977 11.7373 19.2544 11.2429C19.3494 10.7062 19.8796 10.4412 20.2813 10.147C24.0597 7.43815 27.8395 4.73199 31.6152 2.02185Z" fill="#48FDBC"/>
<path d="M36.1172 2.98268C37.4266 2.1544 39.0119 1.75153 40.5597 1.97152C42.386 2.16898 44.065 3.23051 45.108 4.71611C46.0921 5.95919 46.6678 7.53889 46.5888 9.12521C46.4857 10.7553 45.7721 12.3482 44.5697 13.476C41.7553 9.97602 38.9356 6.48002 36.1172 2.98268Z" fill="#F7F7F7"/>
<path d="M20.6719 14.0465C25.3835 10.7109 30.0536 7.31424 34.7626 3.97461C38.4004 8.53082 42.0771 13.0579 45.7296 17.6035C46.3736 18.2979 46.2679 19.5662 45.4551 20.0963C41.1371 23.196 36.8151 26.2905 32.4945 29.3876C31.7259 29.9866 30.5075 29.7494 30.0148 28.9185C26.9072 23.9567 23.7661 19.0149 20.6719 14.0465Z" fill="#F7F7F7"/>
<path d="M11.9766 18.7188C12.6728 18.9732 13.4226 19.1733 14.0505 19.5484C14.159 20.9173 14.3049 22.2837 14.4776 23.646C13.8845 24.1364 13.2686 24.5989 12.6407 25.0415C12.3702 22.9383 12.2042 20.8259 11.9766 18.7188Z" fill="#48FDBC"/>
<path d="M15.9297 19.7212C17.8858 19.4429 19.8688 19.3661 21.8276 19.0957C22.5011 20.1188 23.1237 21.175 23.8025 22.1955C22.4301 22.4261 21.035 22.4791 19.6559 22.6487C18.5124 22.7309 17.3797 22.9018 16.2376 23.0012C16.1198 21.9092 15.9846 20.8185 15.9297 19.7212Z" fill="#F7F7F7"/>
<path d="M11.9705 36.7876C12.4204 36.7519 12.8716 36.7439 13.3228 36.7466C13.4379 37.9777 13.0858 39.2871 12.1646 40.1578C11.2916 41.0814 9.97148 41.3942 8.73165 41.2935C8.66202 40.3473 8.79859 39.3586 9.33282 38.5515C9.91525 37.6358 10.9034 36.9984 11.9705 36.7876Z" fill="#48FDBC"/>
<path d="M19.02 36.7488C19.8435 36.7302 20.7124 36.7488 21.4488 37.1649C22.524 37.691 23.3166 38.734 23.5509 39.8962C23.6232 40.3601 23.5871 40.8292 23.5897 41.2957C22.9578 41.2891 22.3084 41.3182 21.7019 41.1115C20.3723 40.6622 19.3119 39.4814 19.0709 38.1058C19.004 37.6552 19.0227 37.2007 19.02 36.7488Z" fill="#48FDBC"/>
<path d="M28.1941 36.881C28.747 36.7232 29.3281 36.7511 29.8985 36.7484C29.8918 37.3408 29.9333 37.9491 29.7445 38.5216C29.3455 39.8402 28.1967 40.9177 26.8337 41.2132C26.337 41.3073 25.8295 41.2901 25.3261 41.294C25.3382 40.7282 25.2632 40.1424 25.4399 39.5937C25.8054 38.3003 26.8846 37.2348 28.1941 36.881Z" fill="#48FDBC"/>
<path d="M35.5962 36.748C36.2067 36.752 36.8333 36.7215 37.4238 36.9124C38.6489 37.2993 39.6799 38.292 40.028 39.5284C40.2275 40.0969 40.1954 40.7026 40.186 41.295C38.9435 41.397 37.622 41.0803 36.749 40.1553C35.8305 39.2846 35.4784 37.9779 35.5962 36.748Z" fill="#48FDBC"/>
<path d="M2.41777 36.7479C3.20371 36.7346 4.02848 36.7373 4.7448 37.1017C5.73426 37.5549 6.5202 38.423 6.84421 39.4554C7.07718 40.0411 7.03032 40.6786 7.02631 41.2935C6.38095 41.2895 5.71819 41.3187 5.10095 41.104C3.96421 40.7064 3.00288 39.792 2.64137 38.6443C2.41643 38.0373 2.40438 37.3853 2.41777 36.7479Z" fill="#48FDBC"/>
<path d="M43.0622 37.8705C43.9472 36.9613 45.2634 36.6459 46.5032 36.7493C46.5541 37.718 46.3974 38.7319 45.8418 39.5522C45.1697 40.5475 44.0209 41.2565 42.7971 41.283C42.4959 41.2975 42.1946 41.2936 41.896 41.2949C41.7675 40.0571 42.133 38.7411 43.0622 37.8705Z" fill="#48FDBC"/>
<path d="M30.7179 0.59879C31.5347 -0.0293781 32.7076 -0.100942 33.6314 0.328439C34.2299 0.622644 34.6677 1.14214 35.0507 1.67092C37.1273 0.275429 39.8533 -0.202986 42.2433 0.630596C44.5851 1.31177 46.3886 3.18303 47.4584 5.2968C49.0329 8.39921 48.259 12.4876 45.6227 14.7869C46.0887 15.3475 46.5372 15.9213 46.9991 16.4859C47.5106 17.0968 47.8614 17.8694 47.8627 18.6712C47.8895 19.7884 47.2977 20.891 46.3658 21.5152C42.092 24.5831 37.8155 27.6458 33.539 30.7098C32.7598 31.3075 31.7101 31.5341 30.7501 31.3194C29.8169 31.159 29.0162 30.5203 28.5302 29.7331C27.3827 27.9042 26.2286 26.0794 25.0838 24.2492C24.982 24.0941 24.8763 23.9404 24.7558 23.7999C22.5425 24.0199 20.3347 24.3062 18.1174 24.4811C17.377 24.5911 16.6192 24.5871 15.8855 24.7395C15.0299 25.2988 14.2748 26.0012 13.4138 26.5525C12.723 26.9765 11.7938 26.7181 11.3024 26.1165C10.9984 25.7931 10.9569 25.3346 10.9047 24.9171C10.7507 22.8285 10.3825 20.7585 10.2969 18.6646C10.2125 17.566 11.5179 16.7019 12.5261 17.1154C13.3322 17.444 14.1677 17.6972 14.9723 18.0298C15.1732 18.1265 15.4008 18.0748 15.615 18.0656C17.053 17.9317 18.4816 17.7064 19.925 17.6229C20.2262 17.558 20.5355 17.5421 20.8435 17.5235C19.8795 15.9783 18.9061 14.4384 17.9354 12.8971C17.1414 11.6169 17.6127 9.80397 18.9181 9.04725C22.8572 6.23905 26.7802 3.40832 30.7179 0.59879ZM31.615 2.02211C27.8393 4.73224 24.0595 7.4384 20.2811 10.1472C19.8794 10.4414 19.3492 10.7065 19.2542 11.2432C19.0975 11.7375 19.4952 12.1629 19.7174 12.5658C19.8366 12.5446 19.9477 12.5035 20.0495 12.4425C24.5844 9.16388 29.1595 5.93954 33.6823 2.64762C33.4051 2.31234 33.1454 1.90151 32.6995 1.77561C32.3206 1.64706 31.9216 1.80079 31.615 2.02211ZM36.1151 2.98291C38.9335 6.48025 41.7533 9.97625 44.5676 13.4762C45.77 12.3484 46.4836 10.7555 46.5867 9.12544C46.6657 7.53912 46.09 5.95942 45.1059 4.71634C44.0629 3.23073 42.3839 2.16921 40.5576 1.97175C39.0098 1.75176 37.4246 2.15463 36.1151 2.98291ZM20.6707 14.0474C23.765 19.0158 26.9061 23.9576 30.0137 28.9194C30.5064 29.7503 31.7248 29.9875 32.4933 29.3885C36.814 26.2914 41.136 23.1969 45.454 20.0972C46.2667 19.5671 46.3725 18.2988 45.7285 17.6044C42.0759 13.0588 38.3993 8.53173 34.7615 3.97552C30.0525 7.31515 25.3824 10.7118 20.6707 14.0474ZM11.9745 18.7189C12.2021 20.8261 12.3682 22.9385 12.6386 25.0417C13.2666 24.5991 13.8825 24.1365 14.4756 23.6462C14.3029 22.2838 14.1569 20.9175 14.0485 19.5485C13.4205 19.1735 12.6707 18.9734 11.9745 18.7189ZM15.9297 19.7221C15.9846 20.8194 16.1198 21.9101 16.2376 23.0021C17.3797 22.9027 18.5124 22.7318 19.6559 22.6496C21.0349 22.48 22.4301 22.427 23.8025 22.1964C23.1236 21.1759 22.501 20.1197 21.8276 19.0966C19.8687 19.367 17.8858 19.4438 15.9297 19.7221Z" fill="black"/>
<path d="M7.07395 20.5203C7.69788 20.2367 8.3901 20.963 8.15178 21.5712C7.95362 22.2524 6.86374 22.3916 6.53169 21.7488C6.23713 21.2691 6.5491 20.6582 7.07395 20.5203Z" fill="black"/>
<path d="M4.38737 22.792C5.06753 22.5031 5.79323 23.3619 5.42369 23.9861C5.17331 24.6381 4.04193 24.6567 3.82904 23.9662C3.61348 23.5064 3.98435 23.0028 4.38737 22.792Z" fill="black"/>
<path d="M7.80081 25.7938C8.00165 25.5235 8.15696 25.1206 8.54257 25.0835C8.96165 24.9854 9.36064 25.2796 9.50391 25.656C9.71813 26.3054 9.10759 27.1257 8.38725 26.9561C7.82357 26.9044 7.64282 26.259 7.80081 25.7938Z" fill="black"/>
<path d="M2.61483 25.925C3.21466 25.5818 4.03274 26.2312 3.84797 26.8805C3.76764 27.2145 3.4945 27.4424 3.1986 27.5922C3.08479 27.5922 2.8545 27.5922 2.74069 27.5922C1.98153 27.3762 1.95609 26.267 2.61483 25.925Z" fill="black"/>
<path d="M7.16899 28.7033C7.27476 28.7006 7.38188 28.698 7.48765 28.6953C8.39276 28.8848 8.43158 30.2538 7.62154 30.5851C7.16497 30.7985 6.67493 30.5003 6.47008 30.0868C6.43527 29.5461 6.5638 28.8742 7.16899 28.7033Z" fill="black"/>
<path d="M2.05585 29.3611C2.57267 29.161 3.20463 29.4963 3.26756 30.0515C3.40145 30.6784 2.60748 31.2734 2.04513 30.9262C1.42656 30.6466 1.42522 29.6261 2.05585 29.3611Z" fill="black"/>
<path d="M6.31934 34.0992C5.78913 33.5572 6.17875 32.607 6.91783 32.5195C7.39716 32.6057 7.86578 32.9834 7.79616 33.5135C7.86846 34.2596 6.78394 34.6943 6.31934 34.0992Z" fill="black"/>
<path d="M0.738509 35.0516C2.13767 35.106 3.59441 34.8648 4.93332 35.379C6.1437 35.762 7.15458 36.6154 7.86018 37.6465C8.57918 36.6976 9.48964 35.8388 10.6438 35.4439C12.0269 34.8529 13.5586 35.1047 15.018 35.0503C14.9993 36.4485 15.1519 37.881 14.7208 39.2381C14.137 40.8112 12.853 42.1391 11.2329 42.6692C10.4362 42.9899 9.56863 43.0124 8.7211 42.9925C8.71976 44.1269 8.71976 45.2614 8.7211 46.3958C13.6804 46.3958 18.6398 46.3958 23.5991 46.3958C23.6018 45.2614 23.6018 44.1269 23.6004 42.9925C21.9696 43.1158 20.2786 42.591 19.0923 41.4605C18.0761 40.5355 17.4575 39.2196 17.3209 37.8665C17.2848 36.9295 17.3075 35.9899 17.3075 35.0516C18.7121 35.106 20.1768 34.8635 21.5224 35.3816C22.6967 35.762 23.7062 36.5651 24.3877 37.5789C24.4239 37.5789 24.4948 37.5802 24.531 37.5802C25.5298 36.0588 27.3159 35.094 29.1449 35.0516C29.967 35.0477 30.7904 35.0516 31.6138 35.0516C31.6192 35.7739 31.6165 36.4962 31.6178 37.2184C31.658 38.7981 30.9966 40.3911 29.8224 41.4658C28.6388 42.5976 26.9477 43.1131 25.3209 42.9925C25.3183 44.1269 25.3183 45.2614 25.3209 46.3958C30.2803 46.3958 35.2383 46.3958 40.1976 46.3958C40.2003 45.2614 40.2003 44.1269 40.1989 42.9925C38.54 43.1184 36.8195 42.5791 35.6252 41.4142C34.9839 40.8125 34.5139 40.0505 34.1993 39.2368C33.7668 37.881 33.9208 36.4485 33.902 35.0503C35.3628 35.1047 36.8972 34.8515 38.2816 35.4466C39.4384 35.8362 40.3382 36.7029 41.0625 37.6465C42.0533 36.1291 43.7926 35.1272 45.6202 35.0543C46.4731 35.0437 47.3273 35.0543 48.1815 35.0516C48.1507 36.2762 48.2846 37.5193 48.0262 38.7279C47.6915 40.1075 46.7917 41.3399 45.5854 42.1033C44.4968 42.8083 43.174 43.0747 41.8873 42.9939C41.8873 44.1269 41.8873 45.2614 41.8873 46.3958C43.9024 46.4037 45.9161 46.3799 47.9311 46.4077C47.9258 46.9524 47.9258 47.4971 47.9311 48.0431C39.6165 48.0709 31.3005 48.047 22.9859 48.055C15.6526 48.047 8.32077 48.0709 0.988885 48.0431C0.994241 47.4971 0.994241 46.9524 0.988885 46.4077C3.00395 46.3799 5.01767 46.4037 7.03273 46.3958C7.03273 45.2614 7.03139 44.1269 7.03273 42.9939C5.71123 43.0787 4.34955 42.7911 3.24897 42.0423C2.08278 41.283 1.22052 40.0717 0.892483 38.7279C0.635412 37.5179 0.769304 36.2762 0.738509 35.0516ZM11.972 36.789C10.9049 36.9998 9.91675 37.6372 9.33432 38.553C8.8001 39.36 8.66353 40.3487 8.73315 41.2949C9.97299 41.3956 11.2932 41.0829 12.1661 40.1592C13.0873 39.2885 13.4394 37.9791 13.3243 36.748C12.8731 36.7453 12.4219 36.7533 11.972 36.789ZM19.0214 36.7493C19.024 37.2012 19.0053 37.6558 19.0722 38.1063C19.3132 39.482 20.3737 40.6627 21.7032 41.112C22.3097 41.3187 22.9591 41.2896 23.5911 41.2962C23.5884 40.8297 23.6245 40.3606 23.5522 39.8968C23.3179 38.7345 22.5253 37.6915 21.4501 37.1654C20.7137 36.7493 19.8448 36.7307 19.0214 36.7493ZM28.1956 36.8818C26.8861 37.2357 25.807 38.3012 25.4414 39.5946C25.2647 40.1432 25.3397 40.729 25.3276 41.2949C25.8311 41.2909 26.3385 41.3081 26.8352 41.214C28.1983 40.9185 29.347 39.8411 29.746 38.5225C29.9348 37.95 29.8933 37.3417 29.9 36.7493C29.3296 36.7519 28.7485 36.7241 28.1956 36.8818ZM35.5971 36.748C35.4793 37.9778 35.8314 39.2845 36.7499 40.1552C37.6229 41.0802 38.9444 41.3969 40.1869 41.2949C40.1962 40.7025 40.2284 40.0969 40.0289 39.5283C39.6808 38.2919 38.6498 37.2993 37.4247 36.9123C36.8342 36.7215 36.2076 36.7519 35.5971 36.748ZM2.4175 36.7493C2.40412 37.3867 2.41617 38.0388 2.6411 38.6457C3.00261 39.7934 3.96395 40.7078 5.10068 41.1054C5.71792 41.3201 6.38068 41.2909 7.02604 41.2949C7.03006 40.68 7.07692 40.0425 6.84395 39.4568C6.51993 38.4244 5.73399 37.5564 4.74453 37.1031C4.02822 36.7387 3.20345 36.736 2.4175 36.7493ZM43.0615 37.8704C42.1323 38.7411 41.7668 40.0571 41.8953 41.2949C42.1939 41.2936 42.4952 41.2975 42.7964 41.283C44.0202 41.2565 45.169 40.5474 45.8411 39.5522C46.3968 38.7319 46.5534 37.718 46.5025 36.7493C45.2627 36.6459 43.9465 36.9613 43.0615 37.8704Z" fill="black"/>
</svg>

<svg xmlns="http://www.w3.org/2000/svg" width="49" height="49" fill="none"><path fill="#48FDBC" d="M31.615 2.022c.307-.221.706-.375 1.085-.247.446.126.705.537.982.872-4.522 3.292-9.097 6.517-13.632 9.795a1 1 0 0 1-.332.123c-.223-.402-.62-.828-.464-1.322.095-.537.626-.802 1.027-1.096q5.67-4.062 11.334-8.125"/><path fill="#F7F7F7" d="M36.117 2.983c1.31-.829 2.895-1.231 4.443-1.011 1.826.197 3.505 1.259 4.548 2.744.984 1.243 1.56 2.823 1.48 4.41-.102 1.63-.816 3.222-2.018 4.35q-4.224-5.249-8.453-10.493M20.672 14.047c4.712-3.336 9.382-6.733 14.09-10.072C38.4 8.53 42.078 13.058 45.73 17.604c.644.694.538 1.962-.275 2.492q-6.478 4.648-12.96 9.292c-.77.599-1.987.361-2.48-.47-3.108-4.961-6.249-9.903-9.343-14.871"/><path fill="#48FDBC" d="M11.977 18.719c.696.254 1.446.454 2.073.83.109 1.368.255 2.735.428 4.097-.594.49-1.21.953-1.837 1.395-.27-2.103-.437-4.215-.664-6.322"/><path fill="#F7F7F7" d="M15.93 19.721c1.956-.278 3.939-.355 5.898-.625.673 1.023 1.296 2.079 1.974 3.1-1.372.23-2.767.283-4.146.453-1.144.082-2.276.253-3.418.352-.118-1.092-.253-2.183-.308-3.28"/><path fill="#48FDBC" d="M11.97 36.788c.45-.036.902-.044 1.353-.041.115 1.23-.237 2.54-1.158 3.41-.873.924-2.194 1.237-3.433 1.137-.07-.947.067-1.935.6-2.742.583-.916 1.571-1.554 2.638-1.764M19.02 36.749c.823-.019 1.692 0 2.429.416a3.95 3.95 0 0 1 2.102 2.731c.072.464.036.933.039 1.4-.632-.007-1.282.022-1.888-.184-1.33-.45-2.39-1.63-2.631-3.006-.067-.45-.048-.905-.051-1.357M28.194 36.881c.553-.158 1.134-.13 1.704-.133-.006.593.035 1.201-.154 1.774-.398 1.318-1.547 2.396-2.91 2.691-.497.094-1.005.077-1.508.081.012-.566-.063-1.152.114-1.7.365-1.294 1.445-2.36 2.754-2.713M35.596 36.748c.61.004 1.237-.026 1.828.164 1.225.387 2.256 1.38 2.604 2.616.2.569.167 1.175.158 1.767-1.242.102-2.564-.215-3.437-1.14-.919-.87-1.27-2.177-1.153-3.407M2.418 36.748c.786-.013 1.61-.01 2.327.354.99.453 1.775 1.321 2.1 2.353.232.586.185 1.224.181 1.839-.645-.005-1.308.025-1.925-.19-1.137-.398-2.098-1.312-2.46-2.46-.225-.607-.237-1.259-.223-1.896M43.062 37.87c.885-.909 2.201-1.224 3.441-1.12.051.968-.106 1.982-.661 2.802-.672.995-1.821 1.705-3.045 1.731-.301.014-.602.01-.901.012-.129-1.238.237-2.554 1.166-3.425"/><path fill="#000" d="M30.718.599c.817-.628 1.99-.7 2.913-.27.599.294 1.037.813 1.42 1.342C37.127.275 39.853-.203 42.243.63c2.342.68 4.146 2.552 5.215 4.666 1.575 3.102.801 7.19-1.835 9.49.466.56.914 1.134 1.376 1.699.512.61.862 1.383.864 2.185.026 1.117-.565 2.22-1.497 2.844-4.274 3.068-8.55 6.13-12.827 9.195a3.42 3.42 0 0 1-2.789.61c-.933-.161-1.734-.8-2.22-1.587-1.147-1.829-2.301-3.654-3.446-5.484a4 4 0 0 0-.328-.45c-2.213.22-4.421.507-6.639.682-.74.11-1.498.106-2.232.258-.855.56-1.61 1.262-2.471 1.813-.691.425-1.62.166-2.112-.436-.304-.323-.345-.781-.397-1.199-.154-2.089-.522-4.158-.608-6.252-.085-1.099 1.22-1.963 2.23-1.55.805.329 1.64.582 2.445.915.201.096.429.045.643.036 1.438-.134 2.867-.36 4.31-.443.301-.065.61-.08.918-.1-.963-1.545-1.937-3.085-2.908-4.626-.794-1.28-.322-3.093.983-3.85C22.858 6.24 26.78 3.408 30.718.6m.897 1.423q-5.665 4.063-11.334 8.125c-.402.294-.932.56-1.027 1.096-.157.495.241.92.463 1.323a1 1 0 0 0 .332-.123c4.535-3.28 9.11-6.503 13.633-9.795-.277-.336-.537-.746-.983-.872-.378-.129-.777.025-1.084.246m4.5.96q4.23 5.246 8.453 10.494c1.202-1.128 1.916-2.72 2.019-4.35.079-1.587-.497-3.167-1.481-4.41-1.043-1.485-2.722-2.547-4.548-2.744-1.548-.22-3.133.183-4.443 1.01M20.671 14.048c3.094 4.969 6.235 9.91 9.343 14.872.492.831 1.71 1.069 2.48.47 4.32-3.098 8.642-6.192 12.96-9.292.813-.53.919-1.798.274-2.493C42.076 13.06 38.4 8.532 34.762 3.976c-4.709 3.34-9.379 6.736-14.09 10.071m-8.696 4.672c.227 2.107.393 4.22.664 6.323a30 30 0 0 0 1.837-1.396 88 88 0 0 1-.428-4.097c-.627-.375-1.377-.576-2.073-.83m3.955 1.003c.055 1.097.19 2.188.308 3.28 1.142-.1 2.274-.27 3.418-.352 1.379-.17 2.774-.223 4.147-.454-.68-1.02-1.302-2.076-1.975-3.1-1.96.271-3.942.348-5.898.626M7.074 20.52c.624-.283 1.316.443 1.078 1.051-.198.681-1.288.82-1.62.178-.295-.48.017-1.09.542-1.229M4.387 22.792c.68-.289 1.406.57 1.037 1.194-.25.652-1.382.67-1.595-.02-.216-.46.155-.963.558-1.174M7.8 25.794c.202-.27.357-.673.743-.71.419-.099.818.196.96.572.215.65-.395 1.47-1.116 1.3-.563-.052-.744-.697-.586-1.162M2.615 25.925c.6-.343 1.418.306 1.233.956-.08.334-.353.561-.65.711h-.457c-.76-.216-.785-1.325-.126-1.667M7.169 28.703l.319-.008c.905.19.944 1.559.134 1.89-.457.213-.947-.085-1.152-.498-.035-.54.094-1.213.699-1.384M2.056 29.361c.517-.2 1.149.135 1.212.69.133.627-.66 1.222-1.223.875-.618-.28-.62-1.3.01-1.565M6.32 34.1c-.53-.543-.141-1.493.598-1.58.48.086.948.463.878.993.072.747-1.012 1.181-1.477.586M.739 35.052c1.399.054 2.855-.187 4.194.327 1.21.383 2.222 1.236 2.927 2.268.72-.95 1.63-1.808 2.784-2.203 1.383-.591 2.915-.34 4.374-.394-.019 1.399.134 2.831-.297 4.188-.584 1.573-1.868 2.901-3.488 3.431-.797.32-1.664.343-2.512.324v3.403H23.6q.004-1.703.001-3.404c-1.63.124-3.321-.401-4.508-1.531-1.016-.925-1.634-2.241-1.771-3.594-.036-.937-.014-1.877-.014-2.815 1.405.054 2.87-.188 4.215.33 1.175.38 2.184 1.183 2.866 2.197l.143.001c.999-1.521 2.785-2.486 4.614-2.528.822-.004 1.645 0 2.469 0 .005.722.002 1.444.004 2.166a5.64 5.64 0 0 1-1.796 4.248c-1.183 1.132-2.874 1.647-4.501 1.526a743 743 0 0 0 0 3.404h14.877q.003-1.703 0-3.404c-1.658.126-3.379-.413-4.573-1.578-.641-.602-1.111-1.364-1.426-2.177-.432-1.356-.278-2.788-.297-4.187 1.46.055 2.995-.198 4.38.397 1.156.39 2.056 1.256 2.78 2.2.991-1.518 2.73-2.52 4.558-2.593.853-.01 1.707 0 2.562-.002-.031 1.224.103 2.467-.156 3.676-.335 1.38-1.234 2.612-2.44 3.375-1.09.705-2.412.972-3.699.89v3.403c2.015.008 4.03-.016 6.044.012q-.008.817 0 1.635c-8.314.028-16.63.004-24.945.012-7.333-.008-14.665.016-21.997-.012q.008-.818 0-1.635c2.015-.028 4.029-.004 6.044-.012q-.002-1.703 0-3.402c-1.322.085-2.683-.203-3.784-.952a5.6 5.6 0 0 1-2.357-3.314C.635 37.518.77 36.276.74 35.052m11.233 1.737c-1.067.21-2.055.848-2.638 1.764-.534.807-.67 1.796-.6 2.742 1.239.1 2.56-.212 3.432-1.136.921-.87 1.273-2.18 1.158-3.411-.45-.003-.902.005-1.352.041m7.05-.04c.002.452-.017.907.05 1.357.241 1.376 1.302 2.557 2.631 3.006.607.207 1.256.178 1.888.184-.003-.466.034-.935-.039-1.4a3.95 3.95 0 0 0-2.102-2.73c-.736-.417-1.605-.435-2.429-.417m9.174.133c-1.31.354-2.389 1.42-2.755 2.713-.176.548-.101 1.134-.113 1.7.503-.004 1.01.013 1.507-.081 1.363-.295 2.512-1.373 2.911-2.691.189-.573.147-1.181.154-1.774-.57.003-1.151-.025-1.704.133m7.401-.134c-.118 1.23.234 2.537 1.153 3.407.873.925 2.194 1.242 3.437 1.14.01-.593.041-1.198-.158-1.767-.348-1.236-1.38-2.229-2.604-2.616-.59-.19-1.217-.16-1.828-.164m-33.18.001c-.013.638 0 1.29.224 1.897.362 1.147 1.323 2.062 2.46 2.46.617.214 1.28.185 1.925.189.004-.615.05-1.253-.182-1.838-.324-1.033-1.11-1.9-2.1-2.354-.716-.364-1.54-.367-2.326-.354m40.645 1.121c-.93.871-1.295 2.187-1.167 3.425.299-.001.6.002.901-.012 1.224-.026 2.373-.736 3.045-1.73.556-.821.712-1.835.661-2.804-1.24-.103-2.556.212-3.44 1.121"/></svg>
